X:1
T:Blackthorn Stick, The
R:reel
M:4/4
L:1/8
K:D
d2FB AFEF|D2dc BABc|dF~F2 dFAF|GBAF Dgfe|
d2FB AFEF|D2dc BABc|dF~F2 AF~F2|GBAF D4|]
d2 (3fed egfd|A2 (3cBA eAcA|defg ~a3b|afeg fddc:|
</abc>
